media/hamburger.svg

<svg width="40" height="28" fill="none" xmlns="http://www.w3.org/2000/svg"><path d="M0 0v4h40V0H0Zm0 12v4h40v-4H0Zm0 12v4h40v-4H0Z" fill="#f7f4ff"/></svg>

<svg width="40" height="28" viewBox="0 0 40 28" fill="none" xmlns="http://www.w3.org/2000/svg">
<path d="M0 0V4H40V0H0ZM0 12V16H40V12H0ZM0 24V28H40V24H0Z" fill="#f7f4ff"/>
</svg>
